X:1
T:Title
%%score { 1 | 2 }
L:1/8
Q:3/8=32
M:6/8
K:Db
V:1 treble nm="Piano"
V:2 bass 
V:1
 z6 | f3 ed>F | A3- Adf | b3- b/a/=e/f/c/d/ | =A6 | B3 z/ c'/b/f/a/g/ | f2 e f/4e/4=d/4e/4fg | %7
{/g} g'2 (5:4:5e'/4d'/4=a/4g/4e/4 c/d/=d/e/f/g/ | =g2- g/4a/4b/4a/4 f3- | %9
 [df][e_g]>[Bd] [ce][df][=Ac] | %10
 [ce][Bd]/ z/4 [db]/4(3[db]/[ca]/[Bg]/ [Bf](6:4:6=A/B/_c/[=cf]/[df]/[ef]/ | %11
 [df][eg]>[Bd]{/d} [df]/>[ce]/{/f}(3[ce]/[Bd]/[ce]/[df]/>[=Ac]/ | %12
 [ce][Bd]/ z/ [db-] [=db]/[a_c']/(3[db]/=a/[db]/[_af']/ z/4 [ab]/4 | %13
 [gb][a_c'][eg] (6:4:6[gb]/[fa]/[gb]/[fa]/[eg]/[fa]/[gb]/>[=df]/ | %14
 [fa][eg]/ z/4 [ge']/4(3[ge']/[fd']/[e_c']/ (3[=db]/[Bb]/[_cb]/(3[=cb]/[_db]/[=db]/(3[eb]/[_fb]/[=fb]/ | %15
 (5:4:5[gb]/[a_c']/[gb]/[fa]/[gb]/[ac']/>[eg]/ [gb]/>[fa]/(3[fa]/[eg]/[fa]/(3:2:4[fa]/[gb]/ z/4 [=df]/4 | %16
{/f} .[fa] z [eg]- [eg].[=dg].[_dg] | [cg]>[__B__b][Aa]- [Aa][Gg][Dd] | %18
 [Cc]2 A (3__B/_c/B/A/B/_f/>e/ | %19
 e z/ ([__B__b]/[Aa]-) [Aa]-[Aa]/4[Gg]/4[Aa]/4[Gg]/4 [_F_f]/4[Ee]/4[Ff]/4[Ee]/4 | %20
 [Cc] z z/ A/ (3__B/_c/B/A/B/{/B}_f/>e/ | e2 z e3- | e3 =d3 | ^c2 z _d3- | dcB- B/A/B/c/d/e/ | %25
 f3 ed>F | A3- Adf | b3- b/a/=e/f/c/d/ | =A6 | B2 z z/!>(! c'/b/f/a/!>)!g/ | %30
 f2 e- e/(=d/e/=e/f/>g/) | %31
{/g} g'-(3g'/e'/d'/(3__b/g/e/ c/ z/4 A/4(3e/4c'/4=A/4(3_f/4d'/4B/4(3=f/4=d'/4_c/4(3g/4e'/4=c/4 | %32
 [=g=e']>[af'](3:2:4[af']/[bg']/ z/4 [af']/4{/d'} [fd']3 | %33
 [=e^c'][^f=d'][^c=a] [ec']/[=d=b]/[c^a]/[db]/[ec']/>[=B^g]/ | %34
 [=d=b] z/ [^c=a]/(3[ca]/[c^g]/[c^f]/ [d=e]>[^Ae][=Be]/[^Be]/ | %35
 [^c=e]2 [=d^f]/[=Ac]/{/c} [ce]/>[=Bd]/(3[Bd]/[^Ac]/[Bd]/(3:2:4[Bd]/[ce]/ z/4 [^GB]/4 | %36
 [=B=d][=A^c][c=a]- [ca][ca][ca] | [^c^g]=a>^g (3^f/^d/c/(3^B/=e/f/g/ z/4 [Bd]/4 | %38
 [^d^f]-(3[df]/[^c=e]3/4[e^c']/4(3[ec']/[^g=b]3/4[f=a]/4 (3[eg]/[^Gg]/[=Ag]/(3[^Ag]/[=Bg]/[^Bg]/(5:4:5[cg]/4[^^cg]/4[dg]/4[eg]/4[^eg]/4 | %39
 [^f^g]{/=b}[f=a][fg] [f^d']/ z/ [=eg][^dg] | [^d^g]2 ^f z [=c_e_g][_ceg] | %41
 [Beg]{/g} g'2- g'/=d'/(3e'/=a/b/(3f/g/=d/ | [__Beg]{/g} g'2- g'/=d'/(3e'/_a/__b/(3f/g/=d/ | %43
 [=Aeg]{/g} g'2 [A^c^f]{/f} ^f' [A=cf] | %44
{/^f} ^f'-(3g'/=f'/_f'/(3g/e'/=d'/ (3_d'/e/c'/(3b/=a/c/(3_a/=g/_g/ | f3 ed>F | A3- Adf | %47
 b3- b/a/=e/f/c/d/ | _c6 | _c'3- (3c'/=g/a/(3g/^f/g/(3b/a/=f/ | %50
 e3 Td/(5:4:5e/4d/4c/4d/4e/4(9:6:9f/4g/4a/4b/4_c'/4d'/4e'/4f'/4g'/4 | %51
 b'/8a'/8_c''/8=g'/8a'/8g'/8c''/8_g'/8=g'/8_g'/8c''/8f'/8g'/8f'/8c''/8_f'/8=f'/8_f'/8c''/8e'/8f'/8e'/8c''/8=d'/8_d'/8e'/8d'/8c'/8d'/8e'/8=f'/8g'/8a'/8b'/8c''/8d''/8f''/8e''/8d''/8c''/8a'/8f'/8d'/8_c'/8a/8f/8d/8_c/8 | %52
 B3/2=A/4B/4(5:4:5_c/4B/4d/4c/4B/4 B2 b- | %53
 [gb][a_c'][eg] [gb]/ z/4 [fa]/4(3[fa]/[eg]/[fa]/[gb]/ z/4 [=df]/4 | %54
 [fa][eg]/ z/4 [ge']/4(3[ge']/[fd']/[e_c']/ (3[=db]/[Bb]/[_cb]/(3[=cb]/[_db]/[=db]/(3[eb]/[_fb]/[=fb]/ | %55
 [gb][a_c']>[eg] [gb]/ z/4 [fa]/4(3[fa]/[eg]/[fa]/(3:2:4[fa]/[gb]/ z/4 [=df]/4 | %56
 [fa][eg][bg']- [bg']/[af']/(3[ge']/[fd']/[ec']/(3[db]/[ca]/[Bg]/ | [Af][Bg][Af] [Ge][Fd][DF] | %58
 [DA]3 [DEB]3 | %59
 [A,DE]3/2(3E/4A/4d/4(3e/4a/4d'/4(3e'/4a'/4d''/4 e''3/2-(3e''/4d''/4a'/4(3e'/4d'/4a/4(3e/4d/4A/4 | %60
 E3 [A,FA]>E(3F/E/D/ | D2 z d' =g2 | c' _g2 _c' f2 | b =e2 __b _e2 | a2 A/B/ c/d/=d/e/f/g/ | %65
 f2 z z!8va(! d'{/b'}=g!8va)! |!8va(! z c'{/=a'}_g z _c'{/_a'}f!8va)! | %67
!8va(! z b{/g'}=e z __b{/_g'}_e!8va)! | a3- a/=g/_g/f/e/f/ | d3 f/g/=g/a/c'/b/ | %70
 [ca]/d/=d/e/g/f/ e/=g/_g/f/[Ae]/f/ | [__Bd]/A/=G/A/{/c}_B/A/ [Af]/g/=g/a/c'/b/ | %72
 [ca]/d/=d/e/g/f/ e/=g/_g/f/[Ae]/f/ | [F_d]6 | %74
 (7:6:7[Af]/[Bg]/[ca]/[db]/[ec']/[fd']/[ge']/!8va(! (7:6:7[af']/[bg']/[c'a']/[d'b']/[e'c'']/[f'd'']/[g'e'']/ | %75
 [a'f'']2!8va)! z [Af]3 | [Fd]6 |] %77
V:2
 D,,/F/A,/F/D/F,/ D,/F/A,/F/D/F,/ | D,/F/A,/F/D/F,/ D,/F/A,/F/D/F,/ | %2
 D,/F/A,/F/D/F,/ D,/F/A,/F/D/F,/ | D,/F/A,/F/D/F,/ D,/F/A,/F/D/F,/ | %4
 D,,/G/=A,/G/E/G,/ D,/G/A,/G/E/G,/ | D,/G/B,/G/E/G,/ D,/G/B,/G/E/G,/ | %6
 C,/G/=A,/G/E/G,/ B,,/G/B,/G/E/G,/ | __B,,/G/__B,/G/D/E,/ A,,/G/A,/G/C/E,/ | %8
 D,,/=E/=G,/E/B,/D,/ D,,/F/A,/F/D/F,/ | B,,/F/B,/F/D/F,/ B,,/F/=A,/F/E/F,/ | %10
 B,,/F/B,/F/D/F,/ F,,/F/C/F/E/=A,/ | B,,/F/B,/F/D/F,/ B,,/F/=A,/F/E/F,/ | %12
 B,,/F/B,/F/D/F,/ B,,/A/B,/A/=D/F,/ | E,,/G/B,/G/E/G,/ E,/A/B,/A/=D/F,/ | %14
 E,/G/B,/G/E/G,/ B,,/A/B,/A/=D/F,/ | E,,/G/B,/G/E/G,/ E,/A/B,/A/=D/F,/ | %16
 E,/G/B,/G/E/G,/ __B,,/_D/E,/D/G,/E,/ | A,,/C/E,/C/G,/E,/ __B,,/__B,/E,/B,/G,/E,/ | %18
 A,,/A,/E,/A,/G,/A,,/ D,/_F/G,/F/__B,/D,/ | =C,/E/G,/E/A,/G,/ __B,,/D/E,/D/G,/E,/ | %20
 A,,/A,/E,/A,/G,/A,,/ D,/_F/G,/F/__B,/D,/ | =C,/E/G,/E/__B,/G,/ _C,/E/G,/E/B,/G,/ | %22
 _C,/E/F,/E/A,/F,/ =B,,/=D/=E,/D/^G,/E,/ | =A,,/^C/=E,/C/=A,/E,/ __B,,/_D/_E,/D/G,/E,/ | %24
 _A,,/=C/E,/C/G,/D,/ A,,/A,/C,/A,/G,/A,,/ | D,,/F/A,/F/D/F,/ D,/F/A,/F/D/F,/ | %26
 D,/F/A,/F/D/F,/ D,/F/A,/F/D/F,/ | D,/F/A,/F/D/F,/ D,/F/A,/F/D/F,/ | %28
 D,,/G/=A,/G/D/G,/ D,/G/A,/G/=D/G,/ | D,/G/B,/G/!tenuto!E/G,/ D,/G/B,/G/E/G,/ | %30
 C,/G/=A,/G/E/G,/ B,,/G/B,/G/E/G,/ | !>!__B,,/G/__B,/G/D/E,/ A,,/G/A,/G/C/E,/ | %32
 D,,/F/A,/F/D/F,/ D,/F/A,/F/D/A,/ | ^C,/=E/=E,/E/=A,/E,/ =D,/E/E,/E/^G,/E,/ | %34
 ^C,/=E/=E,/E/=A,/E,/ ^G,,/E/E,/E/=D/E,/ | =A,,/=E/=E,/E/^C/E,/ =E,,/E/^G,/E/=D/E,/ | %36
 =A,,/=E/=A,/E/^C/=E,/ ^D,,/^F/A,/F/C/^D,/ | ^G,,/^F/^G,/F/^C/^D,/ G,,/F/G,/F/^B,/D,/ | %38
 ^G,,/=E/^G,/E/^C/=E,/ ^G,,,/E/G,/E/C/E,/ | ^G,,/^D/^F,/D/^B,/^D,/ ^G,,,/D/F,/D/B,/D,/ | %40
 =A,,/^D/^F,/D/^B,/^D,/ =A,,,/_E/_G,/E/_C/_E,/ | _B,,/E/G,/E/B,/E,/ _B,,,/E/G,/E/B,/E,/ | %42
 _C,/E/G,/E/__B,/E,/ _C,,/E/G,/E/B,/E,/ | =C,/E/G,/E/=A,/E,/ ^C,/^C/^F,/A,/=D,/=C/ | %44
 ^F,/=A,/E,/C/_G,/_A,/ A,,/G/A,/G/C/E,/ | D,,/F/A,/F/D/F,/ D,/F/A,/F/D/F,/ | %46
 D,/F/A,/F/D/F,/ D,/F/A,/F/D/F,/ | D,/F/A,/F/D/F,/ D,/F/A,/F/D/F,/ | %48
 D,,/F/A,/F/D/F,/ D,/F/A,/F/D/F,/ | D,/F/A,/F/D/F,/ D,/F/A,/F/D/F,/ | %50
 D,,/F/A,/F/_C/F,/ D,/F/A,/F/C/F,/ | D,/F/A,/F/_C/F,/ D,/F/A,/F/C/F,/ | %52
 =D,/F/A,/F/B,/F,/ D,/F/A,/F/B,/F,/ | E,/G/B,/G/E/G,/ E,/A/B,/A/=D/F,/ | %54
 E,/G/B,/G/E/G,/ B,,/A/B,/A/=D/F,/ | E,,/G/B,/G/E/G,/ E,/A/B,/A/=D/F,/ | %56
 E,/G/B,/G/E/G,/ G,,/E/G,/E/B,/E,/ | A,,/D/F,/D/A,/A,,/ B,,/D/F,/D/B,/B,,/ | %58
 F,,/A,/D,/A,/D,/F,,/ G,,/B,/D,/B,/E,/G,,/ | A,,,/D/E,/D/A,/E,/ A,,/D/E,/D/A,/E,/ | %60
 A,,,/D/E,/D/G,/E,/ A,,/C/E,/C/G,/A,,/ | D,,/F/A,/F/D/F,/ D,/_F/B,/F/D/=G,/ | %62
 D,/E/=A,/E/C/_G,/ D,/=D/_A,/D/_C/F,/ | D,/D/=G,/D/B,/=E,/ D,/D/_G,/D/__B,/_E,/ | %64
 D,/C/G,/C/A,/E,/ D,/C/G,/C/A,/E,/ | D,,/F/A,/F/D/F,/ D,/_F/B,/F/D/=G,/ | %66
 D,/E/=A,/E/C/_G,/ D,/=D/_A,/D/_C/F,/ | D,/D/=G,/D/B,/=E,/ D,/D/_G,/D/__B,/_E,/ | %68
 D,/C/G,/C/A,/E,/ D,/C/G,/C/A,/E,/ | D,,/D/D,/D/F,/A,,/ D,,/D/D,/D/F,/A,,/ | %70
 D,,/C/E,/C/G,/A,,/ D,,/C/E,/C/G,/A,,/ | D,,/D/D,/D/F,/A,,/ D,,/D/D,/D/F,/A,,/ | %72
 D,,/C/E,/C/G,/A,,/ D,,/C/E,/C/G,/A,,/ | D,,/D/D,/D/F,/A,,/ D,,/D/D,/D/F,/A,,/ | %74
 D,,/D/D,/D/F,/A,,/ D,,/D/D,/D/F,/A,,/ | D,,2 z ([A,,A,]3 | [D,A,]6) |] %77

